assets/ios/swift/Icons.xcassets/leave.imageset/leave.svg

<svg width="24" height="24" viewBox="0 0 24 24" fill="none" xmlns="http://www.w3.org/2000/svg">
<path d="M14 12.9999C14.2833 12.9999 14.5208 12.904 14.7125 12.7124C14.9042 12.5207 15 12.2832 15 11.9999C15 11.7165 14.9042 11.479 14.7125 11.2874C14.5208 11.0957 14.2833 10.9999 14 10.9999C13.7167 10.9999 13.4792 11.0957 13.2875 11.2874C13.0958 11.479 13 11.7165 13 11.9999C13 12.2832 13.0958 12.5207 13.2875 12.7124C13.4792 12.904 13.7167 12.9999 14 12.9999Z" fill="black"/>
<path d="M10.385 21.7879C10.142 21.5989 10 21.3079 10 20.9999V2.99987C10.0006 2.84816 10.0356 2.69858 10.1024 2.56237C10.1692 2.42615 10.2661 2.30687 10.3856 2.21349C10.5052 2.12011 10.6444 2.05507 10.7927 2.02327C10.941 1.99146 11.0947 1.99372 11.242 2.02987L19.242 4.02987C19.4584 4.08385 19.6506 4.20865 19.788 4.38441C19.9253 4.56017 19.9999 4.77681 20 4.99987V18.9999C20.0001 19.223 19.9255 19.4397 19.7882 19.6155C19.6508 19.7913 19.4585 19.916 19.242 19.9699L11.242 21.9699C11.0947 22.0068 10.941 22.0096 10.7924 21.9781C10.6439 21.9465 10.5046 21.8815 10.385 21.7879ZM18 5.78088L12 4.28088V19.7189L18 18.2189V5.78088Z" fill="black"/>
<path d="M9 5.99988H7L7 17.9999H9V19.9999H7C5.89543 19.9999 5 19.1044 5 17.9999V5.99988C5 4.89531 5.89543 3.99988 7 3.99988H9V5.99988Z" fill="black"/>
</svg>

<svg xmlns="http://www.w3.org/2000/svg" width="24" height="24" fill="black" viewBox="0 0 24 24">
  <path d="M14 13c.283 0 .52-.096.713-.287A.968.968 0 0 0 15 12a.968.968 0 0 0-.287-.713A.968.968 0 0 0 14 11a.968.968 0 0 0-.713.287A.968.968 0 0 0 13 12c0 .283.096.52.287.713.192.191.43.287.713.287Z"/>
  <path d="M10.385 21.788A.998.998 0 0 1 10 21V3a1.003 1.003 0 0 1 1.242-.97l8 2A1 1 0 0 1 20 5v14a1 1 0 0 1-.758.97l-8 2a.998.998 0 0 1-.857-.182ZM18 5.781l-6-1.5v15.438l6-1.5V5.781ZM9 6H7v12h2v2H7a2 2 0 0 1-2-2V6a2 2 0 0 1 2-2h2v2Z"/>
</svg>
